**kern	**kern	**dynam
*part1	*part1	*part1
*staff2	*staff1	*
*I"Piano	*	*
*clefF4	*clefG2	*
*k[]	*k[]	*
=1	=1	=1
2c 2e	(8gL 8gg	.
.	8cc 8ccc	.
.	8.ee^ 8.eee	.
.	16ccJk) 16ccc	.
=	=	=
8r	(8ccL 8ccc	.
8GL 8d 8f	8b 8bb	.
8G 8c 8f	8a 8aa	.
8GJ 8B 8f	8gJ) 8gg	.
=	=	=
!	!LO:TX:b:i:t=cresc.	!
8r	(8eeL 8eee	.
8GL 8B 8f	8dd 8ddd	.
8G 8c 8f	8cc 8ccc	.
8GJ 8d 8f	8bJ) 8bb	.
=	=	=
8r	(8ggL 8ggg	.
8GL 8B 8d	8ff 8fff	.
8G 8B 8e	8ee 8eee	.
8GJ 8B 8f	8ddJ) 8ddd	.
=	=	=
8r	(8ccL	pp
8GL 8d 8f	8b 8gg	.
8G 8c 8f	8a 8gg	.
8GJ 8B 8f	8gJ) 8gg	.
=	=	=
8r	(8eeL	.
8GL 8B 8f	8dd 8gg	.
8G 8c 8f	8cc 8gg	.
8GJ 8d 8f	8bJ) 8gg	.
=	=	=
[2G 2d 2f [2g	2b 2dd 2ff [2gg	.
=	=	=
*-	*-	*-
!!!system-decoration: {(s1,s2)}
